public/images/home/django.svg

<svg width="119" height="42" viewBox="0 0 119 42" fill="none" xmlns="http://www.w3.org/2000/svg">
<path d="M14.0537 0H20.5582V30.4311C17.2216 31.0714 14.7717 31.3278 12.1106 31.3278C4.16958 31.3273 0.0302582 27.6991 0.0302582 20.7402C0.0302582 14.0376 4.42326 9.68349 11.2234 9.68349C12.2793 9.68349 13.0818 9.7686 14.0537 10.0247V0ZM14.0537 15.318C13.2935 15.0621 12.6599 14.9768 11.8572 14.9768C8.56258 14.9768 6.66173 17.0261 6.66173 20.6118C6.66173 24.1128 8.47812 26.0337 11.815 26.0337C12.533 26.0337 13.1245 25.9913 14.0537 25.8632V15.318Z" fill="#092E20"/>
<path d="M30.9054 10.153V25.3933C30.9054 30.6444 30.5251 33.1633 29.385 35.3404C28.3288 37.4326 26.9348 38.7556 24.0628 40.2076L18.0226 37.3045C20.8949 35.9383 22.2886 34.7433 23.1756 32.9069C24.105 31.0289 24.4009 28.8513 24.4009 23.1309V10.153H30.9054ZM24.4009 0.0351562H30.9054V6.78036H24.4009V0.0351562ZM34.8344 11.647C37.7069 10.2813 40.4522 9.68368 43.4512 9.68368C46.7881 9.68368 48.9843 10.5798 49.956 12.3303C50.5047 13.3121 50.6737 14.5928 50.6737 17.3253V30.6871C47.7589 31.114 44.0845 31.4131 41.3814 31.4131C35.9328 31.4131 33.4826 29.4913 33.4826 25.2225C33.4826 20.6115 36.735 18.4771 44.718 17.7938V16.3424C44.718 15.1472 44.1267 14.7205 42.4792 14.7205C40.0718 14.7205 37.3685 15.4036 34.8339 16.7271L34.8344 11.647ZM45.0142 22.1063C40.7056 22.5332 39.3116 23.2162 39.3116 24.924C39.3116 26.2044 40.1143 26.802 41.8882 26.802C42.8599 26.802 43.7466 26.7169 45.0139 26.5035L45.0142 22.1063ZM53.8419 11.1775C57.6853 10.153 60.8532 9.68368 64.0633 9.68368C67.4002 9.68368 69.8079 10.4518 71.2444 11.9461C72.5959 13.3545 73.018 14.8913 73.018 18.1791V31.0713H66.5133V18.4352C66.5133 15.9166 65.6685 14.977 63.3456 14.977C62.4587 14.977 61.6562 15.0623 60.3464 15.4465V31.0713H53.8419V11.1775ZM75.5467 34.6574C77.8279 35.8529 80.1086 36.4073 82.516 36.4073C86.7815 36.4073 88.5979 34.6574 88.5979 30.4734V30.3453C87.3311 30.9854 86.0635 31.2418 84.3744 31.2418C78.6721 31.2418 75.039 27.4423 75.039 21.4233C75.039 13.9519 80.4037 9.72581 89.9069 9.72581C92.6947 9.72581 95.2716 10.0244 98.397 10.6647L96.1697 15.4069C94.4381 15.0654 96.031 15.3611 94.7223 15.2331V15.9164L94.8065 18.6908L94.8484 22.2771C94.8907 23.1733 94.8907 24.07 94.9332 24.9664V26.7599C94.9332 32.3949 94.4686 35.0415 93.0751 37.2189C91.0475 40.421 87.5415 42.0002 82.5574 42.0002C80.0231 42.0002 77.8274 41.616 75.5461 40.7196L75.5467 34.6574ZM88.4717 15.0196H87.7962C86.5295 14.977 85.0512 15.3182 84.037 15.9585C82.4746 16.8552 81.6713 18.4776 81.6713 20.7828C81.6713 24.0703 83.2771 25.9485 86.1491 25.9485C87.036 25.9485 87.7543 25.7775 88.5984 25.5216V23.2592C88.5984 22.4905 88.5568 21.6362 88.5568 20.7403L88.5148 17.7095L88.4723 15.5322L88.4717 15.0196ZM108.496 9.59803C115 9.59803 118.971 13.7393 118.971 20.4415C118.971 27.3151 114.832 31.6268 108.242 31.6268C101.737 31.6268 97.7243 27.4855 97.7243 20.826C97.7248 13.9095 101.864 9.59803 108.496 9.59803ZM108.368 26.3327C110.86 26.3327 112.339 24.2407 112.339 20.612C112.339 17.0262 110.903 14.8916 108.411 14.8916C105.834 14.8916 104.355 16.9838 104.355 20.612C104.356 24.241 105.834 26.3327 108.368 26.3327Z" fill="#092E20"/>
</svg>

<svg xmlns="http://www.w3.org/2000/svg" width="119" height="42" fill="#092e20" xmlns:v="https://vecta.io/nano"><path d="M14.054 0h6.505v30.431c-3.337.64-5.786.897-8.448.897C4.17 31.327.03 27.699.03 20.74c0-6.703 4.393-11.057 11.193-11.057 1.056 0 1.858.085 2.83.341V0zm0 15.318c-.76-.256-1.394-.341-2.196-.341-3.295 0-5.195 2.049-5.195 5.635 0 3.501 1.816 5.422 5.153 5.422.718 0 1.31-.042 2.239-.171V15.318zm16.851-5.165v15.24c0 5.251-.38 7.77-1.52 9.947-1.056 2.092-2.45 3.415-5.322 4.867l-6.04-2.903c2.872-1.366 4.266-2.561 5.153-4.398.929-1.878 1.225-4.056 1.225-9.776V10.153h6.505zM24.401.035h6.505V6.78h-6.504V.035zm10.434 11.612a19.39 19.39 0 0 1 8.617-1.963c3.337 0 5.533.896 6.505 2.647.549.982.718 2.263.718 4.995v13.362c-2.915.427-6.589.726-9.292.726-5.449 0-7.899-1.922-7.899-6.191 0-4.611 3.252-6.745 11.235-7.429v-1.451c0-1.195-.591-1.622-2.239-1.622-2.407 0-5.111.683-7.645 2.007v-5.08zm10.18 10.459c-4.309.427-5.703 1.11-5.703 2.818 0 1.28.803 1.878 2.577 1.878.972 0 1.858-.085 3.126-.299v-4.397zm8.828-10.929c3.843-1.024 7.011-1.494 10.221-1.494 3.337 0 5.745.768 7.181 2.262 1.352 1.408 1.774 2.945 1.774 6.233V31.07h-6.505V18.435c0-2.519-.845-3.458-3.168-3.458-.887 0-1.689.085-2.999.47v15.625h-6.504V11.178zm21.705 23.48c2.281 1.195 4.562 1.75 6.969 1.75 4.265 0 6.082-1.75 6.082-5.934v-.128c-1.267.64-2.534.896-4.224.896-5.702 0-9.335-3.8-9.335-9.818 0-7.471 5.365-11.697 14.868-11.697 2.788 0 5.365.299 8.49.939l-2.227 4.742c-1.732-.341-.139-.046-1.447-.174v.683l.084 2.774.042 3.586.085 2.689v1.793c0 5.635-.465 8.282-1.858 10.459C91.048 40.421 87.542 42 82.557 42c-2.534 0-4.73-.384-7.011-1.281l.001-6.062zM88.472 15.02h-.675c-1.267-.043-2.745.299-3.759.939-1.562.897-2.366 2.519-2.366 4.824 0 3.287 1.606 5.166 4.478 5.166.887 0 1.605-.171 2.449-.427V23.26c0-.769-.042-1.623-.042-2.519l-.042-3.031-.042-2.177v-.513zm20.024-5.422c6.504 0 10.475 4.141 10.475 10.843 0 6.874-4.139 11.185-10.729 11.185-6.505 0-10.518-4.141-10.518-10.801.001-6.917 4.14-11.228 10.772-11.228zm-.128 16.735c2.492 0 3.971-2.092 3.971-5.721 0-3.586-1.436-5.72-3.928-5.72-2.577 0-4.056 2.092-4.056 5.72s1.479 5.721 4.013 5.721z"/></svg>
